svg/emoji_u1f485_1f3fc.svg

<svg width="128" height="128" viewBox="0 0 128 128" fill="none" xmlns="http://www.w3.org/2000/svg">
<path d="M76.11 99.0398C84.36 87.3698 78.76 81.8798 76.95 79.9198C75.14 77.9598 42.76 92.4398 42.76 92.4398C42.76 92.4398 58.39 80.7998 65.6 73.4198C73.6 65.2298 70.4 60.3398 69.98 58.6198C65.12 38.8698 19.81 71.0998 19.81 71.0998C19.81 71.0998 23.65 68.2498 28.43 64.9498C34.49 60.7698 41.55 54.2598 37.73 45.9698C36.66 43.6398 20.96 44.4098 4 52.1598V124H54.85C63.45 114.41 73.3 103.02 76.11 99.0398Z" fill="#BA8F63" style="fill:#BA8F63;fill:color(display-p3 0.7294 0.5608 0.3882);fill-opacity:1;"/>
<path d="M59.05 109.76C59.05 109.76 66.5 102.97 63.31 102.85C58.03 102.65 52.42 97.5399 52.79 93.8599C53.32 88.6399 67.87 94.0299 69.42 92.0599C71.75 89.1099 73.93 86.0299 75.93 82.8499C76.16 82.4899 76.39 82.1099 76.45 81.6799C76.58 80.7799 75.65 79.8899 75.07 79.3299C69.99 74.3499 65.53 73.7099 54.86 81.8799C47.18 87.7699 19.11 111.12 4 123.73V124H44.66L59.05 109.76Z" fill="#E0BB95" style="fill:#E0BB95;fill:color(display-p3 0.8784 0.7333 0.5843);fill-opacity:1;"/>
<path d="M36.37 43.1101C36.27 42.7801 35.83 42.4101 35.61 42.1401C35.12 41.5501 34.58 41.0001 33.99 40.5001C32.78 39.4801 32.36 35.2301 25.95 36.1301C22.99 36.5401 13.41 41.3501 4 46.3701V72.5201C13.99 66.3401 17.24 64.3801 19.58 62.3501C22.37 59.9301 11.84 61.0401 12.67 50.0501C12.95 46.3901 32.06 46.8901 35.65 44.1601C35.91 43.9601 36.36 43.6501 36.4 43.2901C36.4 43.2301 36.39 43.1701 36.37 43.1101Z" fill="#E0BB95" style="fill:#E0BB95;fill:color(display-p3 0.8784 0.7333 0.5843);fill-opacity:1;"/>
<path d="M64.72 55.2198C64.41 54.7398 64.08 54.2698 63.74 53.8098C63.02 52.8598 62.19 51.9898 61.26 51.2498C59.72 50.0198 58.8 50.3898 57.14 49.3398C54.93 47.9298 48.82 52.0698 34.77 60.4198C26.55 65.2998 14.59 73.1398 4 80.2398V112.85C23.88 97.4998 50.04 77.3898 52.14 75.3698C54.15 73.4298 41.06 73.4898 42.86 63.3498C43.12 61.8798 55.58 68.3598 56.23 67.0098C57.47 64.4398 58.99 61.9998 60.77 59.7798C61.46 58.9198 62.22 58.0698 63.21 57.5998C63.76 57.3398 64.39 57.1798 64.78 56.7298C65.18 56.2598 65.01 55.6798 64.72 55.2198Z" fill="#E0BB95" style="fill:#E0BB95;fill:color(display-p3 0.8784 0.7333 0.5843);fill-opacity:1;"/>
<path d="M42.2 35.2798C45.08 39.3698 44.21 43.8998 37.08 50.2598C31.87 54.9098 28.38 56.7598 23.29 57.8198C18.77 58.7598 15.69 56.2898 12.96 51.3298C10.78 47.3598 12.24 45.1798 13.24 43.8598C16.26 39.8698 23.87 36.4298 27.96 34.9098C34.48 32.4898 40.15 32.3598 42.2 35.2798Z" fill="#EF5592" style="fill:#EF5592;fill:color(display-p3 0.9373 0.3333 0.5725);fill-opacity:1;"/>
<path d="M69.8399 62.3202C66.3799 65.5202 60.9599 69.9402 56.2199 71.2602C53.9999 71.8802 49.4499 72.3102 44.9199 66.8402C40.4399 61.4402 43.3099 57.9502 44.3599 56.6102C47.6399 52.4202 53.1699 49.3402 58.0299 47.1002C64.0499 44.3302 69.8799 43.3002 72.9799 45.9102C77.0799 49.3502 76.4299 56.2402 69.8399 62.3202Z" fill="#EF5592" style="fill:#EF5592;fill:color(display-p3 0.9373 0.3333 0.5725);fill-opacity:1;"/>
<path d="M79.23 74.0698C84.25 77.4198 81.24 85.1598 78.39 88.9498C75.32 93.0398 71.17 97.7998 67.6 99.3898C65.09 100.51 61.04 101.55 55.53 96.9498C50.98 93.1398 52.48 87.8998 54.02 85.3198C56.45 81.2498 60.89 78.2698 65.93 75.2698C71.51 71.9598 76.27 72.0898 79.23 74.0698Z" fill="#EF5592" style="fill:#EF5592;fill:color(display-p3 0.9373 0.3333 0.5725);fill-opacity:1;"/>
<path d="M78.3901 88.9502C80.5301 86.0902 82.7701 81.0002 81.6001 77.2202C79.5301 79.7002 67.2401 94.2902 61.6001 96.5302C59.1701 97.5002 56.6001 97.7602 56.6001 97.7602L56.5901 97.7702C61.5601 101.41 65.2501 100.43 67.6001 99.3902C71.1701 97.8102 75.3201 93.0402 78.3901 88.9502Z" fill="#DA2E75" style="fill:#DA2E75;fill:color(display-p3 0.8549 0.1804 0.4588);fill-opacity:1;"/>
<path d="M75.5199 52.1602C71.2499 55.4402 55.8199 66.9602 50.8599 68.0902C48.6999 68.5802 47.4699 68.7502 46.6599 68.6302C50.3899 71.9902 54.2299 71.8102 56.2199 71.2602C60.9599 69.9302 66.3799 65.5102 69.8399 62.3202C73.5099 58.9302 75.3299 55.3002 75.5199 52.1602Z" fill="#DA2E75" style="fill:#DA2E75;fill:color(display-p3 0.8549 0.1804 0.4588);fill-opacity:1;"/>
<path d="M19.15 55.2298C17.77 55.4398 16.76 55.5598 16.01 55.5598C18.03 57.5798 20.36 58.4198 23.3 57.8098C28.39 56.7498 31.88 54.8998 37.09 50.2498C40.73 46.9998 42.73 44.2398 43.44 41.7598C36.9 46.0298 23.48 54.5598 19.15 55.2298Z" fill="#DA2E75" style="fill:#DA2E75;fill:color(display-p3 0.8549 0.1804 0.4588);fill-opacity:1;"/>
<path d="M18.02 44.54C20.36 41.85 25.64 37.65 32.29 35.72C35.29 34.85 36.18 37.83 34.17 38.65C29.9 40.4 21.48 45.08 20.34 45.73C17.98 47.05 16.39 46.41 18.02 44.54Z" fill="#F386AB" style="fill:#F386AB;fill:color(display-p3 0.9529 0.5255 0.6706);fill-opacity:1;"/>
<path d="M48.5 57.95C52.17 53.72 55.33 51.48 61.66 48.28C63.05 47.58 64.99 47.46 65.8 47.95C67.43 48.93 67.54 50.28 65.52 51.31C56.61 55.87 54.31 57.82 50.54 59.82C48.36 60.98 47.3 59.34 48.5 57.95Z" fill="#F386AB" style="fill:#F386AB;fill:color(display-p3 0.9529 0.5255 0.6706);fill-opacity:1;"/>
<path d="M64.52 80.37C68.81 76.63 71.56 75.54 72.44 76.21C74.01 77.4 72.81 78.88 71.29 80.05C69.77 81.22 61.7 87.69 60.48 88.63C59.26 89.57 57.48 89.99 58.21 88.04C58.82 86.41 61.2 83.26 64.52 80.37Z" fill="#F386AB" style="fill:#F386AB;fill:color(display-p3 0.9529 0.5255 0.6706);fill-opacity:1;"/>
<path d="M81.1499 28.99C79.6099 33.52 86.3099 39.9 96.1299 43.25C105.95 46.6 115.16 45.64 116.7 41.11C117.47 38.84 123.58 4 123.58 4H94.1199C89.6499 12.6 82.1599 26.01 81.1499 28.99Z" fill="#546E7A" style="fill:#546E7A;fill:color(display-p3 0.3294 0.4314 0.4784);fill-opacity:1;"/>
<path d="M113.333 40.8346C114.285 38.0432 108.471 33.5351 100.348 30.7655C92.2246 27.9959 84.8678 28.0136 83.9161 30.8051C82.9644 33.5965 88.7781 38.1046 96.9015 40.8741C105.025 43.6437 112.382 43.626 113.333 40.8346Z" fill="#202020" style="fill:#202020;fill:color(display-p3 0.1255 0.1255 0.1255);fill-opacity:1;"/>
<path d="M90.47 67.0301C90.7 66.6101 91.49 64.7301 91.69 64.4601C92.56 63.3201 93.27 63.2101 93.94 61.4901C94.51 60.0401 102.42 37.5801 102.42 37.5801C102.42 37.5801 102.95 35.1401 99.54 33.9801C96.14 32.8201 95.06 35.0801 95.06 35.0801C95.06 35.0801 87.6 56.1601 86.78 58.5601C86.09 60.6001 86.82 61.1601 86.34 62.4501C86.26 62.6801 85.41 64.2001 85.23 64.4801L90.47 67.0301Z" fill="#546E7A" style="fill:#546E7A;fill:color(display-p3 0.3294 0.4314 0.4784);fill-opacity:1;"/>
<path d="M87.81 61.3399C87.23 61.3599 86.68 61.2699 85.84 62.2399C84.26 64.0299 81.95 65.9999 78.33 67.3799C77.2 67.8099 75.67 68.5599 75.73 69.7699C75.86 72.4399 80.83 75.9399 84.54 74.9499C87.84 74.0699 90.83 68.3999 91.06 67.2599C91.29 66.1199 91.7 64.6699 91.4 63.7799C90.94 62.4199 89.24 61.2999 87.81 61.3399Z" fill="#EF5592" style="fill:#EF5592;fill:color(display-p3 0.9373 0.3333 0.5725);fill-opacity:1;"/>
<path d="M78.76 70.9998C79.26 71.1798 79.74 70.7398 80.23 70.5198C80.95 70.1898 81.7999 70.3798 82.5299 70.6898C83.2599 70.9998 83.95 71.4198 84.73 71.5798C85.89 71.8198 87.12 71.4098 88.08 70.6998C89.03 69.9898 90.8799 65.0998 91.4699 64.0698C91.5299 64.3598 91.6099 64.8098 91.5399 65.3398C90.9999 69.5498 87.5099 74.4598 84.7099 75.1598C83.6199 75.4298 81.97 75.4698 80.87 75.2498C79.76 75.0298 78.4599 74.4198 77.5299 73.7698C76.5999 73.1198 75.95 72.2898 75.44 71.2698C75.19 70.7698 75.2799 70.0098 75.5699 69.4898C75.7699 69.1198 76.17 68.8998 76.58 68.8698C77.06 68.8298 77.5699 69.0598 77.8499 69.4598C78.1399 69.8698 78.1399 70.4398 78.4899 70.8098C78.5499 70.8898 78.65 70.9598 78.76 70.9998Z" fill="#DA2E75" style="fill:#DA2E75;fill:color(display-p3 0.8549 0.1804 0.4588);fill-opacity:1;"/>
<path d="M83.5399 69.8098C80.5999 72.0198 79.2399 71.4898 78.6799 71.2398C78.1099 70.9898 77.6899 70.3398 77.8599 69.7398C78.0399 69.0998 78.7299 68.7898 79.3399 68.5298C80.7399 67.9398 82.59 67.3298 83.87 66.4998C88.4 63.5898 87.4499 62.0698 88.3399 62.3398C89.2299 62.6098 88.0999 65.0798 86.8599 66.7198C85.9099 67.9598 84.4699 69.1098 83.5399 69.8098Z" fill="#F386AB" style="fill:#F386AB;fill:color(display-p3 0.9529 0.5255 0.6706);fill-opacity:1;"/>
<path d="M87.7701 26.0399C89.3401 25.8399 92.1001 25.9699 94.1801 26.2599C94.9101 26.3599 95.6201 25.9799 95.9201 25.3099C97.9001 20.9999 101.94 11.5999 102.7 9.38989C103.44 7.21989 96.2901 6.19989 94.6601 8.89989C92.7101 12.1399 87.0901 23.6899 87.0901 23.6899C86.2201 25.0899 86.4401 26.2199 87.7701 26.0399Z" fill="#78909C" style="fill:#78909C;fill:color(display-p3 0.4706 0.5647 0.6118);fill-opacity:1;"/>
<path d="M87.5499 59.7502C86.9899 59.5502 86.6699 58.8902 86.8599 58.2902C88.1799 54.2102 93.4799 39.2002 94.3299 37.3102C95.3299 35.1102 98.0399 35.6202 97.4999 37.3102C97.0399 38.7502 90.6799 54.7902 89.0799 59.0702C88.8599 59.6902 88.1099 59.9502 87.5499 59.7502Z" fill="#78909C" style="fill:#78909C;fill:color(display-p3 0.4706 0.5647 0.6118);fill-opacity:1;"/>
</svg>

<?xml version="1.0" encoding="utf-8"?>
<!-- Generator: Adobe Illustrator 26.3.1, SVG Export Plug-In . SVG Version: 6.00 Build 0)  -->
<svg version="1.1" id="emoji_x5F_u1f485" xmlns="http://www.w3.org/2000/svg" xmlns:xlink="http://www.w3.org/1999/xlink" x="0px"
	 y="0px" viewBox="0 0 128 128" style="enable-background:new 0 0 128 128;" xml:space="preserve">
<g>
	<path style="fill:#BA8F63;" d="M76.11,99.04c8.25-11.67,2.65-17.16,0.84-19.12S42.76,92.44,42.76,92.44S58.39,80.8,65.6,73.42
		c8-8.19,4.8-13.08,4.38-14.8C65.12,38.87,19.81,71.1,19.81,71.1s3.84-2.85,8.62-6.15c6.06-4.18,13.12-10.69,9.3-18.98
		C36.66,43.64,20.96,44.41,4,52.16V124h50.85C63.45,114.41,73.3,103.02,76.11,99.04z"/>
	<path style="fill:#E0BB95;" d="M59.05,109.76c0,0,7.45-6.79,4.26-6.91c-5.28-0.2-10.89-5.31-10.52-8.99
		c0.53-5.22,15.08,0.17,16.63-1.8c2.33-2.95,4.51-6.03,6.51-9.21c0.23-0.36,0.46-0.74,0.52-1.17c0.13-0.9-0.8-1.79-1.38-2.35
		c-5.08-4.98-9.54-5.62-20.21,2.55C47.18,87.77,19.11,111.12,4,123.73V124h40.66L59.05,109.76z"/>
	<path style="fill:#E0BB95;" d="M36.37,43.11c-0.1-0.33-0.54-0.7-0.76-0.97c-0.49-0.59-1.03-1.14-1.62-1.64
		c-1.21-1.02-1.63-5.27-8.04-4.37C22.99,36.54,13.41,41.35,4,46.37v26.15c9.99-6.18,13.24-8.14,15.58-10.17
		c2.79-2.42-7.74-1.31-6.91-12.3c0.28-3.66,19.39-3.16,22.98-5.89c0.26-0.2,0.71-0.51,0.75-0.87C36.4,43.23,36.39,43.17,36.37,43.11
		z"/>
	<path style="fill:#E0BB95;" d="M64.72,55.22c-0.31-0.48-0.64-0.95-0.98-1.41c-0.72-0.95-1.55-1.82-2.48-2.56
		c-1.54-1.23-2.46-0.86-4.12-1.91c-2.21-1.41-8.32,2.73-22.37,11.08C26.55,65.3,14.59,73.14,4,80.24v32.61
		C23.88,97.5,50.04,77.39,52.14,75.37c2.01-1.94-11.08-1.88-9.28-12.02c0.26-1.47,12.72,5.01,13.37,3.66
		c1.24-2.57,2.76-5.01,4.54-7.23c0.69-0.86,1.45-1.71,2.44-2.18c0.55-0.26,1.18-0.42,1.57-0.87C65.18,56.26,65.01,55.68,64.72,55.22
		z"/>
	<path style="fill:#F44336;" d="M42.2,35.28c2.88,4.09,2.01,8.62-5.12,14.98c-5.21,4.65-8.7,6.5-13.79,7.56
		c-4.52,0.94-7.6-1.53-10.33-6.49c-2.18-3.97-0.72-6.15,0.28-7.47c3.02-3.99,10.63-7.43,14.72-8.95
		C34.48,32.49,40.15,32.36,42.2,35.28z"/>
	<path style="fill:#F44336;" d="M69.84,62.32c-3.46,3.2-8.88,7.62-13.62,8.94c-2.22,0.62-6.77,1.05-11.3-4.42
		c-4.48-5.4-1.61-8.89-0.56-10.23c3.28-4.19,8.81-7.27,13.67-9.51c6.02-2.77,11.85-3.8,14.95-1.19
		C77.08,49.35,76.43,56.24,69.84,62.32z"/>
	<path style="fill:#F44336;" d="M79.23,74.07c5.02,3.35,2.01,11.09-0.84,14.88c-3.07,4.09-7.22,8.85-10.79,10.44
		c-2.51,1.12-6.56,2.16-12.07-2.44c-4.55-3.81-3.05-9.05-1.51-11.63c2.43-4.07,6.87-7.05,11.91-10.05
		C71.51,71.96,76.27,72.09,79.23,74.07z"/>
	<path style="fill:#C62828;" d="M78.39,88.95c2.14-2.86,4.38-7.95,3.21-11.73c-2.07,2.48-14.36,17.07-20,19.31
		c-2.43,0.97-5,1.23-5,1.23c0,0-0.01,0.01-0.01,0.01c4.97,3.64,8.66,2.66,11.01,1.62C71.17,97.81,75.32,93.04,78.39,88.95z"/>
	<path style="fill:#C62828;" d="M75.52,52.16c-4.27,3.28-19.7,14.8-24.66,15.93c-2.16,0.49-3.39,0.66-4.2,0.54
		c3.73,3.36,7.57,3.18,9.56,2.63c4.74-1.33,10.16-5.75,13.62-8.94C73.51,58.93,75.33,55.3,75.52,52.16z"/>
	<path style="fill:#C62828;" d="M19.15,55.23c-1.38,0.21-2.39,0.33-3.14,0.33c2.02,2.02,4.35,2.86,7.29,2.25
		c5.09-1.06,8.58-2.91,13.79-7.56c3.64-3.25,5.64-6.01,6.35-8.49C36.9,46.03,23.48,54.56,19.15,55.23z"/>
	<path style="fill:#FF7555;" d="M18.02,44.54c2.34-2.69,7.62-6.89,14.27-8.82c3-0.87,3.89,2.11,1.88,2.93
		c-4.27,1.75-12.69,6.43-13.83,7.08C17.98,47.05,16.39,46.41,18.02,44.54z"/>
	<path style="fill:#FF7555;" d="M48.5,57.95c3.67-4.23,6.83-6.47,13.16-9.67c1.39-0.7,3.33-0.82,4.14-0.33
		c1.63,0.98,1.74,2.33-0.28,3.36c-8.91,4.56-11.21,6.51-14.98,8.51C48.36,60.98,47.3,59.34,48.5,57.95z"/>
	<path style="fill:#FF7555;" d="M64.52,80.37c4.29-3.74,7.04-4.83,7.92-4.16c1.57,1.19,0.37,2.67-1.15,3.84s-9.59,7.64-10.81,8.58
		c-1.22,0.94-3,1.36-2.27-0.59C58.82,86.41,61.2,83.26,64.52,80.37z"/>
	<path style="fill:#546E7A;" d="M81.15,28.99c-1.54,4.53,5.16,10.91,14.98,14.26c9.82,3.35,19.03,2.39,20.57-2.14
		C117.47,38.84,123.58,4,123.58,4H94.12C89.65,12.6,82.16,26.01,81.15,28.99z"/>
	
		<ellipse transform="matrix(0.3227 -0.9465 0.9465 0.3227 32.9058 117.6079)" style="fill:#202020;" cx="98.62" cy="35.81" rx="5.34" ry="15.54"/>
	<path style="fill:#546E7A;" d="M90.47,67.03c0.23-0.42,1.02-2.3,1.22-2.57c0.87-1.14,1.58-1.25,2.25-2.97
		c0.57-1.45,8.48-23.91,8.48-23.91s0.53-2.44-2.88-3.6c-3.4-1.16-4.48,1.1-4.48,1.1s-7.46,21.08-8.28,23.48
		c-0.69,2.04,0.04,2.6-0.44,3.89c-0.08,0.23-0.93,1.75-1.11,2.03L90.47,67.03z"/>
	<path style="fill:#F44336;" d="M87.81,61.34c-0.58,0.02-1.13-0.07-1.97,0.9c-1.58,1.79-3.89,3.76-7.51,5.14
		c-1.13,0.43-2.66,1.18-2.6,2.39c0.13,2.67,5.1,6.17,8.81,5.18c3.3-0.88,6.29-6.55,6.52-7.69c0.23-1.14,0.64-2.59,0.34-3.48
		C90.94,62.42,89.24,61.3,87.81,61.34z"/>
	<path style="fill:#C62828;" d="M78.76,71c0.5,0.18,0.98-0.26,1.47-0.48c0.72-0.33,1.57-0.14,2.3,0.17c0.73,0.31,1.42,0.73,2.2,0.89
		c1.16,0.24,2.39-0.17,3.35-0.88c0.95-0.71,2.8-5.6,3.39-6.63c0.06,0.29,0.14,0.74,0.07,1.27c-0.54,4.21-4.03,9.12-6.83,9.82
		c-1.09,0.27-2.74,0.31-3.84,0.09c-1.11-0.22-2.41-0.83-3.34-1.48c-0.93-0.65-1.58-1.48-2.09-2.5c-0.25-0.5-0.16-1.26,0.13-1.78
		c0.2-0.37,0.6-0.59,1.01-0.62c0.48-0.04,0.99,0.19,1.27,0.59c0.29,0.41,0.29,0.98,0.64,1.35C78.55,70.89,78.65,70.96,78.76,71z"/>
	<path style="fill:#FF7555;" d="M83.54,69.81c-2.94,2.21-4.3,1.68-4.86,1.43c-0.57-0.25-0.99-0.9-0.82-1.5
		c0.18-0.64,0.87-0.95,1.48-1.21c1.4-0.59,3.25-1.2,4.53-2.03c4.53-2.91,3.58-4.43,4.47-4.16s-0.24,2.74-1.48,4.38
		C85.91,67.96,84.47,69.11,83.54,69.81z"/>
	<path style="fill:#78909C;" d="M87.77,26.04c1.57-0.2,4.33-0.07,6.41,0.22c0.73,0.1,1.44-0.28,1.74-0.95
		c1.98-4.31,6.02-13.71,6.78-15.92c0.74-2.17-6.41-3.19-8.04-0.49c-1.95,3.24-7.57,14.79-7.57,14.79
		C86.22,25.09,86.44,26.22,87.77,26.04z"/>
	<path style="fill:#78909C;" d="M87.55,59.75c-0.56-0.2-0.88-0.86-0.69-1.46c1.32-4.08,6.62-19.09,7.47-20.98
		c1-2.2,3.71-1.69,3.17,0c-0.46,1.44-6.82,17.48-8.42,21.76C88.86,59.69,88.11,59.95,87.55,59.75z"/>
</g>
</svg>
